X: 98
T: Pollonesse #98
M: 3/4
L: 1/16
R: Pollonesse
K: F
Q: 110
F2GA Bcde f2a2|gaeg fefg f4|ddbd ccac BBgB|Acfa gfed c4|
fgAc fefg a2f2|egBd c2gf fedc|d2de fefg a2f2|efcB c4C4:|
|:cBcd c2c2 ABcA|d2e2 gfef g4|BABc B2A2 G2AB|A2c2 fage f4|FAce f2c2 afcf|
g2ga b2bg fedB|f2fe d2dc B2BA|GFGA F4F4:|
N: Jämför nr. 37 & 76

